static/logos/github-glyph-black.svg

<svg width="67" height="64" viewBox="0 0 67 64" fill="none" xmlns="http://www.w3.org/2000/svg">
<g clip-path="url(#clip0_1204_204)">
<path d="M33.2673 0C15.1727 0 0.5 14.6702 0.5 32.7673C0.5 47.245 9.88881 59.5275 22.9084 63.8603C24.5459 64.1635 25.1472 63.1495 25.1472 62.2839C25.1472 61.5027 25.1167 58.9212 25.1028 56.1833C15.9866 58.1654 14.0631 52.3172 14.0631 52.3172C12.5725 48.5297 10.4249 47.5228 10.4249 47.5228C7.45205 45.489 10.649 45.5306 10.649 45.5306C13.9395 45.7619 15.6721 48.9074 15.6721 48.9074C18.5945 53.9169 23.3375 52.4685 25.2074 51.6315C25.5014 49.5134 26.3507 48.0681 27.2877 47.2499C20.0098 46.4211 12.3587 43.6114 12.3587 31.056C12.3587 27.4787 13.6388 24.5555 15.735 22.2608C15.3948 21.4354 14.2733 18.1028 16.0524 13.5893C16.0524 13.5893 18.804 12.7086 25.0658 16.9481C27.6793 16.2219 30.4826 15.858 33.2673 15.8456C36.052 15.858 38.8573 16.2219 41.476 16.9481C47.7303 12.7086 50.4781 13.5893 50.4781 13.5893C52.2616 18.1028 51.1395 21.4354 50.7993 22.2608C52.9002 24.5555 54.1715 27.4785 54.1715 31.056C54.1715 43.6412 46.506 46.4126 39.2096 47.2237C40.3848 48.2406 41.4321 50.2348 41.4321 53.2917C41.4321 57.6759 41.394 61.2046 41.394 62.2839C41.394 63.1559 41.9838 64.1777 43.645 63.8559C56.6573 59.5182 66.0343 47.2401 66.0343 32.7673C66.0343 14.6702 51.3636 0 33.2673 0Z" fill="black"/>
<path d="M12.7724 46.6777C12.7004 46.8404 12.444 46.8892 12.2109 46.7777C11.9732 46.6708 11.8395 46.4487 11.9166 46.2853C11.9873 46.1177 12.2438 46.071 12.481 46.1835C12.7192 46.2902 12.8549 46.5143 12.7724 46.6777ZM14.3842 48.1158C14.228 48.2608 13.9224 48.1934 13.715 47.9645C13.5007 47.736 13.4606 47.4307 13.6192 47.2834C13.7803 47.1388 14.0766 47.2063 14.2915 47.4351C14.5058 47.6661 14.5474 47.9696 14.384 48.1161M15.4901 49.9559C15.2891 50.0954 14.9607 49.9646 14.7579 49.6732C14.5572 49.382 14.5572 49.0325 14.7623 48.8924C14.9658 48.7524 15.2891 48.8783 15.4947 49.1674C15.6951 49.4637 15.6951 49.8132 15.4898 49.9561M17.3599 52.0871C17.1803 52.2849 16.7979 52.232 16.5178 51.9617C16.2315 51.6975 16.1515 51.3225 16.3317 51.1244C16.5134 50.926 16.8981 50.9818 17.1803 51.2498C17.4648 51.5135 17.5514 51.8912 17.3599 52.0871ZM19.7766 52.8066C19.6977 53.0631 19.3292 53.1798 18.9581 53.0708C18.5875 52.9585 18.3449 52.6578 18.4197 52.3985C18.4968 52.1403 18.8669 52.0187 19.2408 52.1354C19.6109 52.2472 19.8537 52.5455 19.7766 52.8066ZM22.5274 53.1117C22.5367 53.382 22.2219 53.6061 21.8323 53.611C21.4404 53.6195 21.1235 53.4008 21.1194 53.1351C21.1194 52.8621 21.427 52.6401 21.8186 52.6337C22.2082 52.626 22.5274 52.8431 22.5274 53.1117ZM25.2294 53.0081C25.2762 53.2718 25.0053 53.5426 24.6185 53.6146C24.2382 53.684 23.8861 53.5213 23.8375 53.26C23.7903 52.9896 24.0663 52.719 24.4458 52.6488C24.8334 52.5815 25.1801 52.7401 25.2294 53.0081Z" fill="black"/>
</g>
<defs>
<clipPath id="clip0_1204_204">
<rect width="65.789" height="64" fill="white" transform="translate(0.5)"/>
</clipPath>
</defs>
</svg>

<svg xmlns="http://www.w3.org/2000/svg" width="67" height="64" fill="none"><g fill="#000" clip-path="url(#a)"><path d="M33.267 0C15.173 0 .5 14.67.5 32.767c0 14.478 9.389 26.76 22.408 31.093 1.638.303 2.24-.71 2.24-1.576 0-.781-.031-3.363-.045-6.1-9.116 1.981-11.04-3.867-11.04-3.867-1.49-3.787-3.638-4.794-3.638-4.794-2.973-2.034.224-1.992.224-1.992 3.29.23 5.023 3.376 5.023 3.376 2.922 5.01 7.665 3.562 9.535 2.725.294-2.119 1.144-3.564 2.08-4.382C20.01 46.42 12.36 43.61 12.36 31.056c0-3.577 1.28-6.5 3.376-8.795-.34-.826-1.462-4.158.317-8.672 0 0 2.752-.88 9.014 3.36 2.613-.727 5.417-1.091 8.201-1.103 2.785.012 5.59.376 8.209 1.102 6.254-4.24 9.002-3.359 9.002-3.359 1.784 4.514.661 7.846.321 8.672 2.101 2.294 3.373 5.218 3.373 8.795 0 12.585-7.666 15.357-14.962 16.168 1.175 1.017 2.222 3.01 2.222 6.068 0 4.384-.038 7.913-.038 8.992 0 .872.59 1.894 2.251 1.572 13.012-4.338 22.39-16.616 22.39-31.089C66.034 14.67 51.363 0 33.266 0"/><path d="M12.772 46.678c-.072.162-.328.211-.561.1-.238-.107-.372-.33-.294-.493.07-.167.327-.214.564-.101.238.106.374.33.291.494m1.612 1.438c-.156.145-.462.077-.669-.151-.214-.229-.254-.534-.096-.682.161-.144.458-.077.672.152.215.231.256.535.093.681m1.106 1.84c-.2.14-.53.009-.732-.283-.2-.291-.2-.64.004-.78s.527-.015.733.274c.2.297.2.646-.005.79m1.87 2.13c-.18.198-.562.145-.842-.125-.287-.265-.367-.64-.186-.838s.566-.142.848.126c.285.264.371.641.18.837m2.417.72c-.08.256-.448.373-.819.264-.37-.112-.613-.413-.538-.672.077-.259.447-.38.82-.264.37.112.614.41.537.672m2.75.305c.01.27-.305.494-.695.499-.392.009-.709-.21-.713-.476 0-.273.308-.495.7-.501.39-.008.708.21.708.478m2.702-.104c.047.264-.224.535-.61.607-.38.069-.733-.094-.782-.355-.047-.27.23-.541.609-.611.387-.068.734.091.783.36"/></g><defs><clipPath id="a"><path fill="#fff" d="M.5 0h65.789v64H.5z"/></clipPath></defs></svg>
